X:314
T:B314-  My life and my Death
Q:1/4=120
L:1/4
M:3/4
K:Am
A|c3/2d/c|B2E|A3/2c/B|^G2B|\
c3/2A/d|B(A/G/)c|ec3/2B/|c2G|\
E3/2E/A|^G2B|c(B/A/)d|B3/2A/G|\
c2c3/4d/4|e(d/c/) (B/A/)|f(e/d/) (c/B/)|c2c3/4d/4|\
e3/2e/A|d3/2d/G|c3/2B/ (c/A/)|^G2B/c/|\
d3/2e/f|e3/2d/ (c/d/)|(e/4d/c/4)B3/2A/|.A2|]
